!!!OTL: ES WAREN ZWEI KOENIGSKINDER
!!!ARE: Europa, Mitteleuropa, Deutschland, Lahn - Gegend, Kreis Limburg
!!!SCT: E0084E
!!!YEM: Copyright 1995, estate of Helmut Schaffrath.
**kern
*ICvox
*Ivox
*M6/8
*k[f#]
*G:
{8d
=1
8b
8g
8g
8g
8a
8b
=2
8b
8a
4.r}
{8a
=3
4a
8a
8dd
8dd
8cc
=4
4.b
4r}
{16g
16b
=5
8dd
8dd
8dd
8dd
8dd
8gg
=6
2ee
8dd}
{8cc
=7
8b
8b
8b
4dd
8cc
=8
4.b
4r}
{16g
16b
=9
8dd
8dd
8dd
8dd
8dd
8gg
=10
2ee
8dd}
{8cc
=11
8b
8b
8b
4dd
8cc
=12
4.b
4r}
==
!!!AGN: erzaehlendes Volks - Lied, Sage, Liebe, Leid, Tod, Ballade ?
!!!ONB: ESAC (Essen Associative Code) Database: ERK1
!!!AMT: compound duple
!!!AIN: vox
!!!EED: Helmut Schaffrath
!!!EEV: 1.0
*-
